X:84
T: Verschlafener Jaeger
N: Q0152A
O: Mitteleuropa, Deutschland (BRD) , Hessen, Marburg, Fronhausen
N: Letzten Notenwert rhythmisch korrigiert. Fuenfte bis letzte Zeile
N: = Refrain, z.T. auf sinnfreie Silben.
R: Ballade, Verfuehrung, Versagen, Spott; Trink - Lied ?
M: 6/8
L: 1/16
K: Bb
F2 | F4F2F2G2A2 | B6G4
G2 | G4G2B2A2G2 | F4B2D4
F2 | F4E2C3AA2 | B4d2d4
d2 | c4c2e3dc2 | B8z2
B2 | B4B2d4d2 | f4f2d4
d2 | c4c2e2d2c2 | B2d2c2B2A2
G2 | F4B2B4d2 | f4f2d4
d2 | c4c2e2d2c2 | B6-B4

